X:1
T:Title
%%score { ( 1 3 ) | ( 2 4 ) }
L:1/8
Q:1/4=110
M:6/8
K:G
V:1 treble nm="Grand Piano"
V:3 treble 
V:2 treble 
V:4 treble 
V:1
 G2 D G2 A | B2 [DAc] .[DBd]3 | [DAd]3 [DGB]3 | [DFA]6 | [B,DG]2 [B,D] [B,DG]2 [CFA] | %5
w: E.~S.~Lorenz * * *|||||
 [DGB]2 [DAc] .[DBd]3 | [Fd]3 [E^c]3 | [Fd]6 | [Fe]2 [Fd] [Fc]2 [FB] | [FA]2 [FB] .[Fc]3 | %10
w: |||||
 d2 c B2 A | G2 A .B3 | c2 B A2 G | E2 [DF] .[EG]3 | [DB]3 [CDA]3 | [B,DG]6 | [Gd]3 d3 | [Gd]6 | %18
w: ||||||||
 [Ge]3 [Ge]3 | d6 | c2 B A2 G | E2 [DF] .[EG]3 | [DB]3 [CDA]3 | [B,DG]6 |] %24
w: ||||||
V:2
 [G,B,D]2 [G,B,] [G,B,D]2 [G,CF] | [G,DG]2[K:bass] G, .G,3 | F,3 G,3 | D,6 | G,2 G, G,2 G, | %5
 G,2 G, .G,3 | A,3 [A,,A,]3 | [D,A,]6 | [D,C]2 [D,B,] [D,A,]2 [D,B,] | [D,C]2 [D,B,] .[D,A,]3 | %10
 [G,B,G]2 [G,EG] [G,DG]2 [G,CF] | [G,B,]2 [G,CF] .[G,DG]3 | %12
 [G,EG]2 [G,DG][K:bass] [G,CD]2 [G,B,D] | [C,G,C]2 [C,G,] .[C,G,]3 | [D,G,]3 D,3 | G,,6 | z3 F3 | %17
 B,2 A, .G,3 | C2 C, [E,C]2 F, | G6 | [G,EG]2 [G,DG][K:bass] [G,CD]2 [G,B,D] | %21
 [C,G,C]2 [C,G,] .[C,G,]3 | [D,G,]3 D,3 | G,,6 |] %24
V:3
 x6 | x6 | x6 | x6 | x6 | x6 | x6 | x6 | x6 | x6 | x6 | x6 | x6 | x6 | x6 | x6 | z2 D z2 A, | %17
 D2 C .B,3 | z2 C z2 C | z2 C .D3 | x6 | x6 | x6 | x6 |] %24
V:4
 x6 | x2[K:bass] x4 | x6 | x6 | x6 | x6 | x6 | x6 | x6 | x6 | x6 | x6 | x3[K:bass] x3 | x6 | x6 | %15
 x6 | [G,B,]2 B, [A,C]2 D, | x6 | x6 | [G,B,]2 A, .B,3 | x3[K:bass] x3 | x6 | x6 | x6 |] %24

